X: 1
T: Glenfiddich
C: William Marshall
R: strathspey
N: Barbara McOwen's version.
Z: 1999 John Chambers <jc:trillian.mit.edu>
M: 4/4
L: 1/8
K: A
|:E \
| "A"A2 c>A e>A c>A | E>A c>A "E7"B3 c \
| "A"A2 c>A e>A c>A | "D"F>d "E"c>B "A"A3 :|
|: f/g/ \
| "A"a>e f>d e>c A>g | a>e f<b "E7"g2 ef/g/ \
| "A"a>e f>d e<c B>A | "D"F>d "E"c>B "A"A3 f/g/ |
| "A"a>e f>d e>c A>g | a>e f<b "E7"g2 ef/g/ \
| "A"a>e f>d e<c B>A | "Bm"B/c/d "E7"c>B "A"A3 |]
